findly-builder/apps/searchassist/src/assets/icons/inprogress.svg

<svg width="26" height="26" viewBox="0 0 26 26" fill="none" xmlns="http://www.w3.org/2000/svg">
<circle cx="13" cy="13" r="12" stroke="#E4E5E7" stroke-width="2"/>
<path d="M13 25C19.6274 25 25 19.6274 25 13C25 6.37258 19.6274 1 13 1" stroke="#0D6EFD" stroke-width="2" stroke-linecap="round"/>
<path d="M6.54785 15.5795V14.6918L9.69061 9.72727H10.3902V11.0341H9.94629L7.69842 14.5923V14.6491H12.0059V15.5795H6.54785ZM9.996 17V15.3097L10.0031 14.9048V9.72727H11.0436V17H9.996ZM15.7755 17.1207C15.2144 17.1184 14.735 16.9704 14.3373 16.6768C13.9395 16.3833 13.6353 15.956 13.4246 15.3949C13.2139 14.8338 13.1086 14.1579 13.1086 13.3672C13.1086 12.5788 13.2139 11.9053 13.4246 11.3466C13.6377 10.7879 13.9431 10.3617 14.3408 10.0682C14.7409 9.77462 15.2191 9.62784 15.7755 9.62784C16.3318 9.62784 16.8089 9.7758 17.2066 10.0717C17.6043 10.3653 17.9085 10.7914 18.1192 11.3501C18.3323 11.9065 18.4388 12.5788 18.4388 13.3672C18.4388 14.1603 18.3335 14.8374 18.1228 15.3984C17.9121 15.9571 17.6079 16.3845 17.2101 16.6804C16.8124 16.974 16.3342 17.1207 15.7755 17.1207ZM15.7755 16.1726C16.2679 16.1726 16.6526 15.9323 16.9296 15.4517C17.209 14.9711 17.3486 14.2763 17.3486 13.3672C17.3486 12.7635 17.2847 12.2533 17.1569 11.8366C17.0314 11.4176 16.8503 11.1004 16.6135 10.8849C16.3792 10.6671 16.0998 10.5582 15.7755 10.5582C15.2854 10.5582 14.9007 10.7997 14.6214 11.2827C14.342 11.7656 14.2011 12.4605 14.1988 13.3672C14.1988 13.9732 14.2615 14.4858 14.387 14.9048C14.5148 15.3215 14.6959 15.6375 14.9303 15.853C15.1647 16.0661 15.4464 16.1726 15.7755 16.1726Z" fill="#BDC1C6"/>
</svg>

<svg width="26" height="26" fill="none" xmlns="http://www.w3.org/2000/svg"><circle cx="13" cy="13" r="12" stroke="#E4E5E7" stroke-width="2"/><path d="M13 25c6.627 0 12-5.373 12-12S19.627 1 13 1" stroke="#0D6EFD" stroke-width="2" stroke-linecap="round"/><path d="M6.548 15.58v-.888L9.69 9.727h.7v1.307h-.445l-2.248 3.558v.057h4.308v.93H6.548ZM9.996 17v-1.69l.007-.405V9.727h1.04V17H9.997Zm5.78.12c-.562-.002-1.041-.15-1.439-.443-.397-.294-.702-.721-.912-1.282-.211-.561-.316-1.237-.316-2.028 0-.788.105-1.462.316-2.02.213-.56.518-.985.916-1.279.4-.293.878-.44 1.434-.44.557 0 1.034.148 1.432.444.397.293.701.72.912 1.278.213.556.32 1.229.32 2.017 0 .793-.105 1.47-.316 2.031-.21.56-.515.986-.913 1.282-.398.294-.876.44-1.435.44Zm0-.947c.492 0 .877-.24 1.154-.721.279-.48.419-1.176.419-2.085 0-.604-.064-1.114-.192-1.53-.126-.42-.307-.737-.544-.952a1.189 1.189 0 0 0-.838-.327c-.49 0-.874.242-1.154.725-.279.483-.42 1.178-.422 2.084 0 .606.063 1.119.188 1.538.128.417.309.732.543.948.235.213.516.32.845.32Z" fill="#BDC1C6"/></svg>
